assets/svg/icon-large-map-blue.svg

<?xml version="1.0" encoding="UTF-8" standalone="no"?>
<svg width="107px" height="63px" viewBox="0 0 107 63" version="1.1" xmlns="http://www.w3.org/2000/svg" xmlns:xlink="http://www.w3.org/1999/xlink">
    <!-- Generator: Sketch 3.8.3 (29802) - http://www.bohemiancoding.com/sketch -->
    <title>blue/icon-large-map-blue</title>
    <desc>Created with Sketch.</desc>
    <defs></defs>
    <g id="blue,-base" stroke="none" stroke-width="1" fill="none" fill-rule="evenodd">
        <g id="icons,-large-detailed-(blue)" transform="translate(-82.000000, -745.000000)" fill="#1055FF">
            <g id="blue/icon-large-map-blue" transform="translate(82.000000, 745.000000)">
                <g id="Combined-Shape">
                    <g id="Page-1">
                        <path d="M0,0 L0,48.808911 L24.9288731,62.92323 L52.5316301,48.808911 L79.6283811,62.9232282 L106.057143,48.8089112 L106.057143,0 L79.6283831,11.8762329 L52.5316301,4.33062139e-08 L24.9288731,11.876233 L0,0 L0,0 Z M78.6285714,13.4585857 L53.3942853,2.38982352 L53.3942872,26.6755588 L51.5657157,25.2154024 L51.5657139,2.42735099 L26.134861,13.3778457 L26.1348615,30.5418534 L24.1371425,31.1707597 L24.1371425,13.4794296 L1.82857143,2.92571432 L1.82857143,47.725715 L24.1371425,60.4401907 L24.1371425,40.1572551 L26.1348615,39.5120543 L26.134861,60.143255 L51.5657139,47.3041373 L51.5657157,33.6311391 L53.3942872,34.8495543 L53.3942853,47.2602639 L78.6285714,60.3895214 L78.6285714,39.1767865 L80.4571429,37.6571436 L80.4571429,60.4593975 L104.228571,47.5428571 L104.228571,2.92571432 L80.4571429,13.5275246 L80.4571429,28.8342641 L78.6285714,30.2277908 L78.6285714,13.4585857 L78.6285714,13.4585857 Z M93.7756462,30.7194767 C93.4526217,30.3413564 93.1227026,30.4250245 93.0335612,30.9361095 L92.7120212,32.7796361 C92.6252034,33.2773994 92.1722233,33.7834337 91.6763357,33.9163063 L88.1133232,34.8710126 C87.6281477,35.001015 87.3673108,34.72724 87.5348063,34.2478448 L89.1591049,29.5988802 C89.3247744,29.1247117 89.1476125,28.4742016 88.7667569,28.1487909 L85.1723204,25.0776311 C84.7899632,24.7509372 84.8671748,24.3823568 85.3689891,24.2478961 L88.9745874,23.2817788 C89.4655618,23.1502226 90.1209406,23.3524729 90.4530454,23.7510746 L91.5176697,25.0288677 C91.8432252,25.4196087 92.180439,25.3388683 92.2750241,24.8259352 L92.5782345,23.181632 C92.6709544,22.6788144 93.128719,22.1686826 93.6246065,22.03581 L97.1876191,21.0811037 C97.6727945,20.9511013 97.9373281,21.2184737 97.7654654,21.7159428 L96.2045716,26.2340674 C96.0385318,26.7146816 96.2068855,27.3613736 96.6111962,27.7044575 L100.283236,30.8204217 C100.673849,31.1518815 100.603329,31.5243257 100.101515,31.6587864 L96.4959163,32.6249035 C96.0049419,32.7564597 95.348356,32.5604319 95.0220412,32.17846 L93.7756462,30.7194767 L93.7756462,30.7194767 Z M7.98025061,40.5811385 C7.90165819,40.386421 7.98895954,40.1811471 8.20279345,40.1139944 L24.9412442,34.8574341 C25.1427436,34.794155 25.4356392,34.6480086 25.5920596,34.5334852 L40.0053263,23.9808005 C40.1632622,23.8651675 40.4271526,23.8289285 40.6402962,23.9191386 L52.0395692,28.7437189 C52.2323174,28.8252968 52.5144744,29.0147321 52.6413504,29.1389875 L66.6994525,42.9067279 C66.8390588,43.0434507 67.0698827,43.0632066 67.2416254,42.930251 L85.0866041,29.1154644 C85.2464316,28.991733 85.4434977,29.0601788 85.5170247,29.2439956 L85.9664015,30.367432 C86.0442887,30.5621491 85.9838872,30.8157491 85.8189336,30.9435961 L67.0496349,45.4906884 C66.8903035,45.6141778 66.648248,45.6022139 66.4989817,45.4540317 L51.9193009,30.9802525 C51.774515,30.8365182 51.4989453,30.6502056 51.334291,30.577564 L40.7891359,25.9252924 C40.6108299,25.846628 40.3401355,25.8777064 40.1615095,26.0120117 L26.1790597,36.5251326 C26.0107372,36.6516908 25.7247404,36.8001298 25.5129858,36.8650441 L8.93729936,41.9463852 C8.73775929,42.0075549 8.50788871,41.8883928 8.43369593,41.7045758 L7.98025061,40.5811385 L7.98025061,40.5811385 Z" id="Combined-Shape"></path>
                    </g>
                </g>
            </g>
        </g>
    </g>
</svg>

<svg width="107" height="63" viewBox="0 0 107 63" xmlns="http://www.w3.org/2000/svg"><title>blue/icon-large-map-blue</title><path d="M0 0v48.809l24.929 14.114L52.532 48.81l27.096 14.114 26.43-14.114V0l-26.43 11.876L52.532 0 24.929 11.876 0 0zm78.629 13.459L53.394 2.389v24.287l-1.828-1.46V2.426l-25.431 10.95v17.165l-1.998.629V13.479L1.83 2.926v44.8L24.137 60.44V40.157l1.998-.645v20.631l25.43-12.839V33.631l1.83 1.219v12.41l25.234 13.13V39.177l1.828-1.52V60.46l23.772-12.916V2.926L80.457 13.528v15.306l-1.828 1.394v-16.77zm15.147 17.26c-.323-.378-.653-.294-.742.217l-.322 1.844c-.087.497-.54 1.003-1.036 1.136l-3.563.955c-.485.13-.746-.144-.578-.623l1.624-4.65c.166-.473-.011-1.124-.392-1.45l-3.595-3.07c-.382-.327-.305-.696.197-.83l3.606-.966c.49-.132 1.146.07 1.478.47l1.065 1.277c.325.39.662.31.757-.203l.303-1.644c.093-.503.55-1.013 1.047-1.146l3.563-.955c.485-.13.75.137.577.635l-1.56 4.518c-.166.48.002 1.127.406 1.47l3.672 3.116c.39.332.32.704-.181.839l-3.606.966c-.491.131-1.148-.065-1.474-.447l-1.246-1.459zM7.98 40.581a.34.34 0 0 1 .223-.467l16.738-5.257c.202-.063.495-.209.651-.324l14.413-10.552a.684.684 0 0 1 .635-.062l11.4 4.825c.192.081.474.27.601.395L66.7 42.907c.14.136.37.156.543.023l17.845-13.815c.16-.123.356-.055.43.129l.45 1.123a.515.515 0 0 1-.148.577L67.049 45.49a.425.425 0 0 1-.55-.037L51.919 30.98a2.42 2.42 0 0 0-.585-.402L40.79 25.925a.673.673 0 0 0-.627.087L26.179 36.525a2.51 2.51 0 0 1-.666.34L8.937 41.946a.43.43 0 0 1-.503-.241L7.98 40.58z" fill="#1055FF" fill-rule="evenodd"/></svg>
